assets/images/overwatch-name-white.svg

<svg width="624" height="91" viewBox="0 0 624 91" fill="none" xmlns="http://www.w3.org/2000/svg">
<path fill-rule="evenodd" clip-rule="evenodd" d="M296.054 70.8572H307.333L319.521 45.2731L330.768 70.8572H342.559C346.362 63.0239 351.52 53.7958 354.625 45.8164L365.418 19.6891L348.616 19.7539L337.937 45.703L326.146 19.681H314.461L302.63 45.0947L294.529 26.0871C293.256 22.9408 293.142 22.2434 291.788 19.681H273.632L296.054 70.8572ZM606.817 19.6891H624V71.4654H606.817V51.9388H574.429V71.4654H557.246V19.6891H574.429V38.121H606.817V19.6891ZM400.385 19.6891H386.867L352.403 71.1491L372.717 71.0762L393.63 38.6237L414.665 71.7087H433.753L400.385 19.6891ZM420.714 33.3285H443.792V71.4654H461.048L461.032 33.3366H478.832C481.897 28.7712 485.23 24.2545 488.295 19.6891H420.722V33.3285H420.714ZM99.6441 71.4654H112.246L146.604 20.2973L126.29 20.3702L106.861 51.6063L86.7101 20.3702H67.6214L99.6441 71.4654ZM145.509 32.6636V71.4654H199.264V58.0125L162.262 57.9963V51.063H187.838V40.1645H162.262V33.1825L199.264 33.2555V20.354H153.772L145.509 32.6636ZM485.295 37.4398V61.4913C485.295 64.9944 489.503 71.4654 496.412 71.4654H532.303C543.088 71.4654 549.478 68.4975 549.364 57.826L549.299 51.9388H532.303V57.9963L502.802 58.0125V33.3285H532.303V38.7373H549.364V32.3068C549.364 26.6385 545.423 19.6972 535.019 19.6972H496.534C494.798 22.957 485.295 35.1936 485.295 37.4398ZM207.3 71.4654H225.626V34.0097H253.286V42.0052L233.719 41.9809V52.1496L254.989 71.4654H278.035L257.065 51.9064C268.369 52.2388 270.291 46.3922 270.291 41.2835V30.5714C270.291 23.5571 264.842 20.2891 257.69 20.2891H207.292V71.4654H207.3ZM0 34.0097L0.0405453 60.2425C0.0973087 64.6538 2.56246 67.6866 6.86837 70.5653L18.1967 58.0125L18.3265 34.0097H50.3978V58.0044L25.7219 58.0206L14.353 71.3843L57.0796 71.4654C60.3476 71.4654 68.1404 67.1433 68.1404 60.2425V33.815C65.7239 29.9632 61.6045 23.7841 59.3096 20.3621L13.7449 20.2891C4.88976 20.2973 0 25.1708 0 34.0097Z" fill="white"/>
<path fill-rule="evenodd" clip-rule="evenodd" d="M93.8138 19.2347H121.304L107.559 0L93.8138 19.2347Z" fill="#EF7D00"/>
<path fill-rule="evenodd" clip-rule="evenodd" d="M407.44 71.4651H379.95L393.695 90.6998L407.44 71.4651Z" fill="#EF7D00"/>
</svg>

<svg id="Camada_1" data-name="Camada 1" xmlns="http://www.w3.org/2000/svg" viewBox="0 0 624 90.7"><title>overwatch-name-white</title><path d="M296.05,70.86h11.28l12.19-25.59,11.25,25.59h11.79c3.8-7.84,9-17.06,12.07-25l10.79-26.13-16.8.06-10.68,26-11.79-26H314.46L302.63,45.09l-8.1-19a52.93,52.93,0,0,0-2.74-6.41H273.63Z" style="fill:#fff;fill-rule:evenodd"/><path d="606.82 19.69 624 19.69 624 71.47 606.82 71.47 606.82 51.94 574.43 51.94 574.43 71.47 557.25 71.47 557.25 19.69 574.43 19.69 574.43 38.12 606.82 38.12 606.82 19.69" style="fill:#fff;fill-rule:evenodd"/><path d="400.38 19.69 386.87 19.69 352.4 71.15 372.72 71.08 393.63 38.62 414.67 71.71 433.75 71.71 400.38 19.69" style="fill:#fff;fill-rule:evenodd"/><path d="M420.71,33.33h23.08V71.47h17.26l0-38.13h17.8c3.07-4.57,6.4-9.09,9.47-13.65H420.72V33.33Z" style="fill:#fff;fill-rule:evenodd"/><path d="99.64 71.47 112.25 71.47 146.6 20.3 126.29 20.37 106.86 51.61 86.71 20.37 67.62 20.37 99.64 71.47" style="fill:#fff;fill-rule:evenodd"/><path d="145.51 32.66 145.51 71.47 199.26 71.47 199.26 58.01 162.26 58 162.26 51.06 187.84 51.06 187.84 40.16 162.26 40.16 162.26 33.18 199.26 33.26 199.26 20.35 153.77 20.35 145.51 32.66" style="fill:#fff;fill-rule:evenodd"/><path d="M485.3,37.44V61.49c0,3.5,4.2,10,11.11,10H532.3c10.79,0,17.18-3,17.06-13.64l-.06-5.89h-17V58H502.8V33.33h29.5v5.41h17.06V32.31c0-5.67-3.94-12.61-14.34-12.61H496.53C494.8,23,485.3,35.19,485.3,37.44Z" style="fill:#fff;fill-rule:evenodd"/><path d="M207.3,71.47h18.33V34h27.66v8l-19.57,0V52.15L255,71.47H278l-21-19.56c11.3.33,13.22-5.52,13.22-10.63V30.57c0-7-5.45-10.28-12.6-10.28h-50.4V71.47Z" style="fill:#fff;fill-rule:evenodd"/><path d="M0,34,0,60.24c.06,4.41,2.52,7.45,6.83,10.33L18.2,58l.13-24H50.4V58L25.72,58,14.35,71.38l42.73.09c3.27,0,11.06-4.33,11.06-11.23V33.81c-2.42-3.85-6.54-10-8.83-13.45l-45.57-.07C4.89,20.3,0,25.17,0,34Z" style="fill:#fff;fill-rule:evenodd"/><path d="M93.81,19.23H121.3L107.56,0Z" style="fill:#ef7d00;fill-rule:evenodd"/><path d="M407.44,71.47H380L393.7,90.7Z" style="fill:#ef7d00;fill-rule:evenodd"/></svg>
